static/img/svg/image-alt.svg

<svg xmlns="http://www.w3.org/2000/svg" width="24" height="24" viewBox="0 0 24 24"><path d="M4.999 21h14a1 1 0 0 0 1-1V4A1 1 0 0 0 19 3L5 2.992h-.001a1.004 1.004 0 0 0-1 1.008v16a1 1 0 0 0 1 1zm1-2v-3h12v3h-12zm12-14v9h-12V4.993l12 .007z"/><path d="M13 12h3l-3-5-2.143 3.571L10 10l-2 2h2z"/><circle cx="9" cy="8" r="1"/></svg>

<svg xmlns="http://www.w3.org/2000/svg" width="24" height="24" viewBox="0 0 24 24"><path d="M4.999,21h14c0.553,0,1-0.448,1-1V4c0-0.552-0.447-1-0.999-1L5,2.992c-0.001,0-0.001,0-0.001,0 c-0.265,0-0.52,0.109-0.707,0.296C4.104,3.477,3.999,3.735,3.999,4v16C3.999,20.552,4.446,21,4.999,21z M5.999,4.993l12,0.007V14 h-12V4.993z M5.999,16h12v3h-12V16z"/><path d="M10.857 10.571L10 10 8 12 10 12 13 12 16 12 13 7z"/><circle cx="9" cy="8" r="1"/></svg>
